X: 43297
T: Wooden Whale
R: reel
M: 4/4
K: Bminor
|:f2 ef Bffe|faef afec|e2 ce Aece|faec fece|
f2 ef Bffe|faef afef|fecB A2 ce|1 faec fBB2:|2 face fBBA||
|:BBBb afef|Bffe faec|e2 ce Aece|faec fecA|
BBBb afef|Bffe faef|afec A2 ce|1 faec fBBA:|2 face fBB2||

